X: 447
T:Sirba de Cimpoi
O:Romania
S:Gypsy Camp vol. 1. presented by Mihai & Alexandru David (GC5201B)
F: http://www.youtube.com/watch?v=VZHmT7uUdGg
P:ABAC
L:1/8
M:2/4
Q:1/4=180
K:Am
P:A
|: "Am"AB cd    | e2 "G"d2    | c2 "Em"B2   | "Am"c3 d|\
   e2 "G"d2     | "Am"c2 "G"d2|[1 "Am"c3 d  | cB A2   :|[2 "Am"c2 "Em"B2| "Am"A2 z2|
P:B
|: "Am"ed e2    | ed e2       | ed e2       | dc c2   |\
   "Dm"dc d2    |"Dm"dc d2    | ed "Am"e2   |dc c2    :|
P:C
|: "Am"c2 "Em"B2| "Am"e3 d    | c2 "Em"B2   | "Am"e3 d|\
   c2 "Em"B2    |"Am"e2 "G"d2 |"Am"c2 "Em"B2| "Am"A4  :|



